X:0270
T:Sandy o er the Lee.
M:2/4
L:1/8
Q:1/4=128
I: || ::
Z:Jack Campin * www.campin.me.uk * 2009
K:G
D|G>AGB|dBdB      |ABAc |  e2 (e3/f//g//)     |\
  G>AGB|dB (de/f/)|gedB |  G3                ||
B|A>GAd|BGGB      |A>GAd|(TB2  G)B            |\
  A>GAd|B^cdg     |fdef |  d2 (e d//c//B//A//)|
  G>AGB|dBdB      |A>BAc|  e2  e3/f//g//      |\
  G>AGB|dBd>Hg    |A>GAd|  G3                :|

